svgs/sharp-regular/hood-cloak.svg

<svg xmlns="http://www.w3.org/2000/svg" viewBox="0 0 576 512"><!--! Font Awesome Pro 6.6.0 by @fontawesome - https://fontawesome.com License - https://fontawesome.com/license (Commercial License) Copyright 2024 Fonticons, Inc. --><path d="M0 464l64-80 0-96C64 128 160 0 288 0L412.1 0 480 0 441.6 38.4 432 48 407.2 72.8c13.2 9 25.5 19.4 36.7 31.2C485.6 147.8 512 210.4 512 288l0 96 64 80 0 48-48 0L48 512 0 512l0-48zM288 48c-90.5 0-176 94-176 240l0 96 0 16.8L101.5 414l-40 50 98.5 0 0-128c0-70.7 57.3-128 128-128s128 57.3 128 128l0 128 98.5 0-40-50L464 400.8l0-16.8 0-96c0-83.7-35.5-142.6-83.8-175.5L332.3 79.9 364.1 48 288 48zM208 464l160 0 0-128c0-44.2-35.8-80-80-80s-80 35.8-80 80l0 128z"/></svg>

<svg xmlns="http://www.w3.org/2000/svg" viewBox="0 0 576 512"><!--! Font Awesome Pro 6.4.0 by @fontawesome - https://fontawesome.com License - https://fontawesome.com/license (Commercial License) Copyright 2023 Fonticons, Inc. --><path d="M0 464l64-80V288C64 128 160 0 288 0H412.1 480L441.6 38.4 432 48 407.2 72.8c13.2 9 25.5 19.4 36.7 31.2C485.6 147.8 512 210.4 512 288v96l64 80v48H528 48 0V464zM288 48c-90.5 0-176 94-176 240v96 16.8L101.5 414l-40 50H160V336c0-70.7 57.3-128 128-128s128 57.3 128 128V464h98.5l-40-50L464 400.8V384 288c0-83.7-35.5-142.6-83.8-175.5L332.3 79.9 364.1 48H288zM208 464H368V336c0-44.2-35.8-80-80-80s-80 35.8-80 80V464z"/></svg>
